public/images/logos/bash.svg

<svg width="631" height="239" viewBox="0 0 631 239" fill="none" xmlns="http://www.w3.org/2000/svg">
<path d="M399.634 129.828H422.143C422.143 143.193 438.95 150.485 451.751 150.485C466.113 150.485 481.5 143.679 481.5 132.259C481.5 116.705 460.856 116.941 445.219 113.401C426.508 109.167 405.111 99.5637 405.111 79.2797C405.111 58.2424 426.9 45.4482 450.625 45.4482C468.32 45.4482 484.681 53.6147 492.489 63.3353L476.227 77.0613C471.628 72.2109 461.551 66.6757 451.562 66.6757C432.781 66.6757 427.974 75.247 427.974 81.3218C427.974 93.2302 451.301 93.4976 469.236 98.0042C485.993 102.214 505.79 111.36 505.79 131.528C505.79 155.102 483.622 171.386 452.714 171.386C420.553 171.386 399.634 153.399 399.634 129.828ZM340.875 135.658L314.029 102.95L313.603 103.246C305.668 108.743 291.417 117.568 291.417 128.721C291.417 134.304 293.701 139.505 298.201 144.189C312.946 158.399 328.793 147.615 340.875 135.658ZM223.013 109.069C223.013 84.7245 207.285 67.9282 186.704 67.9282C164.965 67.9282 152.688 84.7245 152.688 109.069C152.688 133.412 164.965 150.208 186.704 150.208C207.285 150.208 223.013 133.412 223.013 109.069ZM130.565 109.069C130.565 72.5554 152.363 46.7502 185.847 46.7502C203.645 46.7502 216.756 56.0012 222.145 63.7921V51.6603L244.752 51.4493V169.925H222.145V154.346C216.756 162.135 203.645 171.386 185.847 171.386C152.363 171.386 130.565 145.583 130.565 109.069ZM92.9639 109.069C92.9639 85.4557 79.0056 67.9282 57.3875 67.9282C36.4462 67.9282 21.8108 85.4557 21.8108 109.069C21.8108 132.68 36.4462 150.208 57.3875 150.208C79.0056 150.208 92.9639 132.68 92.9639 109.069ZM22.121 154.346V169.925H0V0H22.121V63.7921C29.0072 55.029 41.6288 46.7502 58.8428 46.7502C92.1231 46.7502 114.843 71.5829 114.843 109.069C114.843 146.557 92.1231 171.386 58.8428 171.386C41.1689 171.386 29.2371 162.623 22.121 154.346ZM308.057 57.0894C308.057 64.4573 313.929 69.8739 318.236 75.2222L319.195 74.5131C324.97 70.2525 332.744 65.3828 332.744 57.3561C332.744 50.0102 327.226 46.1846 320.312 46.1846C314 46.1846 308.057 50.361 308.057 57.0894ZM371.154 103.246L385.849 118.336L367.676 136.133L395.348 169.882H367.896L353.608 152.312C340.99 165.071 327.676 171.539 314.015 171.539C289.646 171.539 269.11 154.595 269.11 129.327C269.11 105.474 284.183 99.2802 299.541 86.959C290.747 77.3005 286.29 67.6206 286.29 58.1739C286.29 37.9652 300.919 25.4167 320.578 25.4167C338.932 25.4167 354.604 37.353 354.604 56.6417C354.604 72.2759 342.11 82.6676 330.773 91.493L354.331 120.008L371.154 103.246ZM521.911 0H544.033V65.784C552.197 55.5599 561.529 47.8009 579.492 47.8009C611.875 47.8009 631 66.545 631 97.2173V171.675H608.88V101.353C608.88 80.9056 597.494 68.7358 575.423 68.7358C554.767 68.7358 544.033 82.3379 544.033 102.052V171.675H521.911V0Z" fill="black"/>
<path d="M134.136 211.502C132.74 209.078 131.111 207.587 128.551 207.587C125.944 207.587 123.664 209.451 123.664 212.155C123.664 215.183 128.598 216.815 130.784 217.794C135.345 219.798 139.255 222.128 139.255 227.907C139.255 234.2 134.275 239 127.992 239C122.22 239 117.892 235.085 116.681 229.072L121.708 227.721C122.22 231.263 124.641 234.152 127.899 234.152C131.157 234.152 134.136 231.683 134.136 228.28C134.136 224.879 131.204 223.48 128.365 222.175C123.617 220.125 118.544 218.166 118.544 212.014C118.544 206.329 123.338 202.739 128.644 202.739C132.693 202.739 136.184 204.977 138.371 208.938L134.136 211.502Z" fill="black"/>
<path d="M148.708 203.298H167.558V208.146H153.828V216.815H167.139V221.708H153.828V233.593H167.558V238.44H148.708V203.298Z" fill="black"/>
<path d="M207.216 232.847C203.725 236.763 198.745 238.999 193.951 238.999C184.084 238.999 175.938 230.844 175.938 220.963C175.938 210.895 184.084 202.739 194.183 202.739C199.304 202.739 203.818 204.79 207.588 208.566L203.959 212.155C201.259 209.311 197.954 207.587 194.138 207.587C186.877 207.587 181.013 213.785 181.013 221.009C181.013 227.767 187.016 234.152 193.858 234.152C197.396 234.152 201.212 232.288 203.725 229.119L207.216 232.847Z" fill="black"/>
<path d="M220.626 220.87C220.626 228.094 226.025 234.152 232.588 234.152C239.104 234.152 244.456 228.094 244.456 220.87C244.456 213.599 239.197 207.587 232.588 207.587C225.978 207.587 220.626 213.599 220.626 220.87ZM249.622 220.917C249.622 231.03 241.897 239 232.541 239C223.14 239 215.46 231.03 215.46 220.917C215.46 210.849 223.14 202.739 232.541 202.739C241.897 202.739 249.622 210.849 249.622 220.917Z" fill="black"/>
<path d="M259.682 202.599H261.357L285.979 228.372V203.298H291.099V238.44H288.632L264.801 213.506V238.44H259.682V202.599Z" fill="black"/>
<path d="M309.303 233.593C313.213 233.593 316.61 232.893 319.495 230.284C322.056 227.814 323.498 224.411 323.498 220.869C323.498 217.187 322.101 213.692 319.309 211.315C316.424 208.704 313.166 208.145 309.303 208.145H307.255V233.593H309.303ZM302.135 203.298H309.163C314.329 203.298 318.658 204.138 322.753 207.539C326.709 210.988 328.571 215.742 328.571 220.916C328.571 225.996 326.663 230.563 322.847 234.012C318.75 237.601 314.469 238.44 309.07 238.44H302.135V203.298Z" fill="black"/>
<path d="M337.746 203.298H356.595V208.146H342.865V216.815H356.177V221.708H342.865V233.593H356.595V238.44H337.746V203.298Z" fill="black"/>
<path d="M384.76 203.298H389.74L401.563 229.258L413.431 203.298H418.364V238.44H413.198V216.581L402.913 238.44H400.213L389.973 216.768V238.44H384.76V203.298Z" fill="black"/>
<path d="M442.201 212.947L437.501 223.992H446.81L442.201 212.947ZM435.36 228.84L431.31 238.44H425.633L441.084 203.346H443.458L458.538 238.44H452.814L448.858 228.84H435.36Z" fill="black"/>
<path d="M466.171 203.298H471.291V238.44H466.171V203.298Z" fill="black"/>
<path d="M482.376 202.599H484.051L508.672 228.372V203.298H513.793V238.44H511.326L487.495 213.506V238.44H482.376V202.599Z" fill="black"/>
</svg>

<svg xmlns="http://www.w3.org/2000/svg" width="631" height="239" fill="none"><path fill="#000" d="M399.634 129.828h22.509c0 13.365 16.807 20.657 29.608 20.657 14.362 0 29.749-6.806 29.749-18.226 0-15.554-20.644-15.318-36.281-18.858-18.711-4.234-40.108-13.837-40.108-34.121 0-21.038 21.789-33.832 45.514-33.832 17.695 0 34.056 8.167 41.864 17.887l-16.262 13.726c-4.599-4.85-14.676-10.385-24.665-10.385-18.781 0-23.588 8.571-23.588 14.646 0 11.908 23.327 12.176 41.262 16.682 16.757 4.21 36.554 13.356 36.554 33.524 0 23.574-22.168 39.858-53.076 39.858-32.161 0-53.08-17.987-53.08-41.558Zm-58.759 5.83-26.846-32.708-.426.296c-7.935 5.497-22.186 14.322-22.186 25.475 0 5.583 2.284 10.784 6.784 15.468 14.745 14.21 30.592 3.426 42.674-8.531Zm-117.862-26.589c0-24.344-15.728-41.14-36.309-41.14-21.739 0-34.016 16.796-34.016 41.14 0 24.343 12.277 41.139 34.016 41.139 20.581 0 36.309-16.796 36.309-41.139Zm-92.448 0c0-36.514 21.798-62.319 55.282-62.319 17.798 0 30.909 9.251 36.298 17.042V51.66l22.607-.21v118.475h-22.607v-15.579c-5.389 7.789-18.5 17.04-36.298 17.04-33.484 0-55.282-25.803-55.282-62.317Zm-37.601 0c0-23.613-13.958-41.14-35.576-41.14-20.942 0-35.577 17.527-35.577 41.14 0 23.611 14.635 41.139 35.577 41.139 21.618 0 35.576-17.528 35.576-41.139ZM22.12 154.346v15.579H0V0h22.121v63.792C29.007 55.03 41.629 46.75 58.843 46.75c33.28 0 56 24.833 56 62.319 0 37.488-22.72 62.317-56 62.317-17.674 0-29.606-8.763-36.722-17.04Zm285.936-97.257c0 7.368 5.872 12.785 10.179 18.133l.959-.709c5.775-4.26 13.549-9.13 13.549-17.157 0-7.346-5.518-11.171-12.432-11.171-6.312 0-12.255 4.176-12.255 10.904Zm63.097 46.157 14.695 15.09-18.173 17.797 27.672 33.749h-27.452l-14.288-17.57c-12.618 12.759-25.932 19.227-39.593 19.227-24.369 0-44.905-16.944-44.905-42.212 0-23.853 15.073-30.047 30.431-42.368-8.794-9.659-13.251-19.338-13.251-28.785 0-20.209 14.629-32.757 34.288-32.757 18.354 0 34.026 11.936 34.026 31.225 0 15.634-12.494 26.026-23.831 34.851l23.558 28.515 16.823-16.762ZM521.911 0h22.122v65.784c8.164-10.224 17.496-17.983 35.459-17.983C611.875 47.8 631 66.545 631 97.217v74.458h-22.12v-70.322c0-20.447-11.386-32.617-33.457-32.617-20.656 0-31.39 13.602-31.39 33.316v69.623h-22.122V0ZM134.136 211.502c-1.396-2.424-3.025-3.915-5.585-3.915-2.607 0-4.887 1.864-4.887 4.568 0 3.028 4.934 4.66 7.12 5.639 4.561 2.004 8.471 4.334 8.471 10.113 0 6.293-4.98 11.093-11.263 11.093-5.772 0-10.1-3.915-11.311-9.928l5.027-1.351c.512 3.542 2.933 6.431 6.191 6.431s6.237-2.469 6.237-5.872c0-3.401-2.932-4.8-5.771-6.105-4.748-2.05-9.821-4.009-9.821-10.161 0-5.685 4.794-9.275 10.1-9.275 4.049 0 7.54 2.238 9.727 6.199l-4.235 2.564ZM148.708 203.298h18.85v4.848h-13.73v8.669h13.311v4.893h-13.311v11.885h13.73v4.847h-18.85v-35.142ZM207.216 232.847c-3.491 3.916-8.471 6.152-13.265 6.152-9.867 0-18.013-8.155-18.013-18.036 0-10.068 8.146-18.224 18.245-18.224 5.121 0 9.635 2.051 13.405 5.827l-3.629 3.589c-2.7-2.844-6.005-4.568-9.821-4.568-7.261 0-13.125 6.198-13.125 13.422 0 6.758 6.003 13.143 12.845 13.143 3.538 0 7.354-1.864 9.867-5.033l3.491 3.728ZM220.626 220.87c0 7.224 5.399 13.282 11.962 13.282 6.516 0 11.868-6.058 11.868-13.282 0-7.271-5.259-13.283-11.868-13.283-6.61 0-11.962 6.012-11.962 13.283Zm28.996.047c0 10.113-7.725 18.083-17.081 18.083-9.401 0-17.081-7.97-17.081-18.083 0-10.068 7.68-18.178 17.081-18.178 9.356 0 17.081 8.11 17.081 18.178ZM259.682 202.599h1.675l24.622 25.773v-25.074h5.12v35.142h-2.467l-23.831-24.934v24.934h-5.119v-35.841ZM309.303 233.593c3.91 0 7.307-.7 10.192-3.309a13.087 13.087 0 0 0 4.003-9.415c0-3.682-1.397-7.177-4.189-9.554-2.885-2.611-6.143-3.17-10.006-3.17h-2.048v25.448h2.048Zm-7.168-30.295h7.028c5.166 0 9.495.84 13.59 4.241 3.956 3.449 5.818 8.203 5.818 13.377 0 5.08-1.908 9.647-5.724 13.096-4.097 3.589-8.378 4.428-13.777 4.428h-6.935v-35.142ZM337.746 203.298h18.849v4.848h-13.73v8.669h13.312v4.893h-13.312v11.885h13.73v4.847h-18.849v-35.142ZM384.76 203.298h4.98l11.823 25.96 11.868-25.96h4.933v35.142h-5.166v-21.859l-10.285 21.859h-2.7l-10.24-21.672v21.672h-5.213v-35.142ZM442.201 212.947l-4.7 11.045h9.309l-4.609-11.045Zm-6.841 15.893-4.05 9.6h-5.677l15.451-35.094h2.374l15.08 35.094h-5.724l-3.956-9.6H435.36ZM466.171 203.298h5.12v35.142h-5.12v-35.142ZM482.376 202.599h1.675l24.621 25.773v-25.074h5.121v35.142h-2.467l-23.831-24.934v24.934h-5.119v-35.841Z"/></svg>
